lib/brands/logos/cor-vel-corporation.svg

<svg xmlns="http://www.w3.org/2000/svg" fill="none" aria-hidden="true" viewBox="0 0 207 58"><g id="CorVel Corporation"><g id="Group"><g id="Group_2"><g id="Vector"><path fill="#4E8ABE" d="M30.3328 5.30856C24.4162 5.40438 18.8829 6.84161 14.7628 9.38073C10.6906 11.8719 8.46291 15.1536 8.46291 18.603C8.46291 20.7828 9.37316 22.9386 11.1218 24.8549C15.2658 20.8067 22.4041 18.3155 30.3328 18.1958C30.5484 18.1958 30.5484 17.9802 30.5484 17.9802V5.52415C30.5484 5.50019 30.5245 5.30856 30.3328 5.30856Z"/><path fill="#4E8ABE" d="M8.46291 22.3877V32.3046C8.46291 39.5387 18.3319 45.4553 30.5484 45.599V39.7064C30.5484 39.1315 30.9796 38.6764 31.5784 38.6284H31.6024C38.6209 38.5326 45.304 36.784 50.4301 33.7179C51.5081 33.0711 52.5381 32.3525 53.4723 31.586V22.6272C53.4723 22.5554 53.4723 22.5075 53.4483 22.4356C50.6457 28.5199 41.4474 32.7358 30.9556 32.7358C20.2482 32.7358 11.2176 28.3522 8.46291 22.3877Z"/></g><path id="Vector_2" fill="#50B3CF" d="M31.6262 39.4908C31.4825 39.5147 31.3867 39.5866 31.3867 39.7064V52.1384C31.3867 52.3061 31.5304 52.354 31.5783 52.354H31.6022C38.6207 52.2582 45.3039 50.5096 50.43 47.4435C56.658 43.7306 60.2272 38.1973 60.2272 32.3046V23.6573C58.766 27.8971 55.5082 31.6818 50.8612 34.4605C45.6153 37.5984 38.7884 39.371 31.6262 39.4908Z"/></g><g id="Vector_3"><path fill="#5C6670" d="M78.1208 36.3768C71.773 36.3768 67.0062 31.3464 67.0062 24.6393V24.5675C67.0062 17.9562 71.9407 12.7822 78.2167 12.7822C82.1211 12.7822 84.3968 14.2673 86.0975 15.7285C86.5287 16.1118 86.7682 16.6148 86.7682 17.1178C86.7682 18.052 85.9777 18.8425 85.0435 18.8425C84.6842 18.8425 84.3249 18.7227 83.9656 18.4592L83.9177 18.4113C82.1451 16.7825 80.3725 16.0639 78.1927 16.0639C73.8331 16.0639 70.5275 19.6809 70.5275 24.4717V24.5435C70.5275 29.2864 73.905 33.0232 78.1927 33.0232C80.4923 33.0232 82.2649 32.2806 84.1093 30.5081C84.3968 30.1967 84.804 30.029 85.2112 30.029C86.0975 30.029 86.888 30.8195 86.888 31.7297C86.888 32.2088 86.6724 32.6879 86.3131 32.9993C83.8219 35.3707 81.3786 36.3768 78.1208 36.3768Z"/><path fill="#5C6670" d="M99.9428 36.3768C93.5232 36.3768 88.6605 31.3464 88.6605 24.6393V24.5675C88.6605 17.9562 93.643 12.7822 99.9907 12.7822C106.41 12.7822 111.273 17.8125 111.273 24.5196V24.5914C111.273 31.2027 106.291 36.3768 99.9428 36.3768ZM99.9428 16.1118C95.5114 16.1118 92.1818 19.7288 92.1818 24.5196V24.5914C92.1818 29.4301 95.5353 33.0711 99.9907 33.0711C104.422 33.0711 107.752 29.4541 107.752 24.6633V24.5914C107.752 19.7528 104.398 16.1118 99.9428 16.1118Z"/><path fill="#5C6670" d="M131.897 36.1612C131.466 36.1612 130.867 36.0175 130.34 35.2988L124.376 27.5378H118.89V34.3886C118.89 35.3707 118.1 36.1612 117.118 36.1612C116.184 36.1612 115.393 35.3467 115.393 34.3886V14.938C115.393 13.9799 116.184 13.1654 117.118 13.1654H125.286C128.017 13.1654 130.34 14.0038 131.849 15.489C133.023 16.6627 133.694 18.3395 133.694 20.16V20.2318C133.694 23.5614 131.73 25.9329 128.256 26.8671L133.167 33.1909C133.382 33.4304 133.67 33.8376 133.67 34.4125C133.67 35.3467 132.832 36.1612 131.897 36.1612ZM118.866 24.304H125.047C128.137 24.304 130.125 22.747 130.125 20.3276V20.2558C130.125 17.8604 128.28 16.4711 125.07 16.4711H118.866V24.304Z"/><path fill="#5C6670" d="M146.437 36.257H146.318C145.431 36.257 144.761 35.7779 144.401 34.8916L135.993 15.5129C135.874 15.2734 135.826 15.0578 135.826 14.7464C135.826 13.8122 136.64 13.0217 137.598 13.0217C138.365 13.0217 139.036 13.5008 139.347 14.2673L146.413 31.1788L153.504 14.1954C153.791 13.5966 154.39 12.9978 155.204 12.9978C156.163 12.9978 156.929 13.7643 156.929 14.6985C156.929 14.938 156.881 15.1776 156.809 15.3931L148.354 34.9156C147.851 36.0175 147.036 36.257 146.437 36.257Z"/><path fill="#5C6670" d="M176.571 36.0175H162.87C161.936 36.0175 161.145 35.203 161.145 34.2449V14.938C161.145 13.9799 161.936 13.1654 162.87 13.1654H176.404C177.314 13.1654 178.033 13.908 178.033 14.7943C178.033 15.7045 177.29 16.4232 176.404 16.4232H164.642V22.8189H175.014C175.901 22.8189 176.643 23.5614 176.643 24.4477C176.643 25.358 175.901 26.0766 175.014 26.0766H164.642V32.6639H176.571C177.482 32.6639 178.2 33.4065 178.2 34.2928C178.2 35.1791 177.482 36.0175 176.571 36.0175Z"/><path fill="#5C6670" d="M196.908 36.0175H184.356C183.422 36.0175 182.632 35.203 182.632 34.2449V14.7943C182.632 13.8361 183.422 13.0217 184.356 13.0217C185.338 13.0217 186.129 13.8122 186.129 14.7943V32.7118H196.908C197.818 32.7118 198.537 33.4544 198.537 34.3886C198.537 35.2749 197.818 36.0175 196.908 36.0175Z"/></g></g></g></svg>

<svg xmlns="http://www.w3.org/2000/svg" fill="none" aria-hidden="true" viewBox="0 0 207 58"><path fill="#4E8ABE" d="M30.333 5.309c-5.917.095-11.45 1.533-15.57 4.072-4.072 2.49-6.3 5.773-6.3 9.222 0 2.18.91 4.336 2.659 6.252 4.144-4.048 11.282-6.54 19.21-6.66.216 0 .216-.215.216-.215V5.524c0-.024-.024-.215-.215-.215Z"/><path fill="#4E8ABE" d="M8.463 22.388v9.917c0 7.234 9.869 13.15 22.085 13.294v-5.893c0-.575.432-1.03 1.03-1.078h.024c7.019-.095 13.702-1.844 18.828-4.91a25.509 25.509 0 0 0 3.042-2.132v-8.959c0-.072 0-.12-.024-.191-2.802 6.084-12 10.3-22.492 10.3-10.708 0-19.738-4.384-22.493-10.348Z"/><path fill="#50B3CF" d="M31.626 39.49c-.143.025-.24.097-.24.216v12.432c0 .168.144.216.192.216h.024c7.019-.096 13.702-1.844 18.828-4.91 6.228-3.713 9.797-9.247 9.797-15.14v-8.647c-1.461 4.24-4.719 8.025-9.366 10.804-5.246 3.137-12.073 4.91-19.235 5.03Z"/><path fill="#5C6670" d="M78.12 36.377c-6.347 0-11.114-5.03-11.114-11.738v-.072c0-6.61 4.935-11.785 11.21-11.785 3.905 0 6.18 1.485 7.882 2.947.43.383.67.886.67 1.389 0 .934-.79 1.725-1.725 1.725-.359 0-.718-.12-1.077-.384l-.048-.048c-1.773-1.629-3.546-2.347-5.725-2.347-4.36 0-7.665 3.617-7.665 8.408v.072c0 4.742 3.377 8.48 7.665 8.48 2.3 0 4.072-.743 5.916-2.516a1.506 1.506 0 0 1 1.102-.479c.886 0 1.677.79 1.677 1.7 0 .48-.216.959-.575 1.27-2.491 2.372-4.934 3.378-8.192 3.378Zm21.823 0c-6.42 0-11.282-5.03-11.282-11.738v-.072c0-6.61 4.982-11.785 11.33-11.785 6.419 0 11.282 5.03 11.282 11.738v.071c0 6.612-4.982 11.786-11.33 11.786Zm0-20.265c-4.432 0-7.761 3.617-7.761 8.408v.071c0 4.84 3.353 8.48 7.809 8.48 4.431 0 7.761-3.617 7.761-8.408v-.072c0-4.838-3.354-8.48-7.81-8.48Zm31.954 20.049c-.431 0-1.03-.144-1.557-.862l-5.964-7.761h-5.486v6.85c0 .983-.79 1.773-1.772 1.773-.934 0-1.725-.814-1.725-1.772V14.938c0-.958.791-1.773 1.725-1.773h8.168c2.731 0 5.054.839 6.563 2.324 1.174 1.174 1.845 2.85 1.845 4.671v.072c0 3.33-1.964 5.7-5.438 6.635l4.911 6.324c.215.24.503.647.503 1.221 0 .935-.838 1.75-1.773 1.75Zm-13.031-11.857h6.181c3.09 0 5.078-1.557 5.078-3.976v-.072c0-2.396-1.845-3.785-5.055-3.785h-6.204v7.833Zm27.571 11.953h-.119c-.887 0-1.557-.48-1.917-1.365l-8.408-19.38a1.58 1.58 0 0 1-.167-.766c0-.934.814-1.724 1.772-1.724.767 0 1.438.479 1.749 1.245l7.066 16.912 7.091-16.984c.287-.598.886-1.197 1.7-1.197.959 0 1.725.766 1.725 1.7 0 .24-.048.48-.12.695l-8.455 19.523c-.503 1.101-1.318 1.341-1.917 1.341Zm30.134-.24H162.87c-.934 0-1.725-.814-1.725-1.772V14.938c0-.958.791-1.773 1.725-1.773h13.534c.91 0 1.629.743 1.629 1.63a1.63 1.63 0 0 1-1.629 1.628h-11.762v6.396h10.372c.887 0 1.629.742 1.629 1.629a1.63 1.63 0 0 1-1.629 1.629h-10.372v6.587h11.929a1.63 1.63 0 0 1 1.629 1.629c0 .886-.718 1.724-1.629 1.724Zm20.337 0h-12.552c-.934 0-1.724-.814-1.724-1.772v-19.45c0-.959.79-1.773 1.724-1.773.982 0 1.773.79 1.773 1.772v17.918h10.779c.91 0 1.629.742 1.629 1.677a1.63 1.63 0 0 1-1.629 1.628Z"/></svg>
